!!!COM: Corelli, Arcangelo
!!!OPR: Sonata da camera
!!!OPS: 4
!!!ONM: 4
!!!OMV: 2
!!!OTL: Corrente
!!!OMD: Allegro
**kern	**cdata-harm	**fb	**kern	**kern
*part3	*above	*part3	*part2	*part1
*staff3	*	*	*staff2	*staff1
*I"Violone & Cembalo	*	*	*I"Violino II	*I"Violino I
*clefF4	*	*	*clefG2	*clefG2
*k[f#c#]	*	*	*k[f#c#]	*k[f#c#]
*D:	*D:	*	*D:	*D:
*M3/4	*	*	*M3/4	*M3/4
*MM176	*	*	*MM176	*MM176
=	=	=	=	=
8D	.	.	8f#	8a
=1	=1	=1	=1	=1
2.D	.	.	4.f#	4.a
.	.	.	8f#	8a
.	.	.	4a	4dd
=2	=2	=2	=2	=2
4D	.	.	4dd	4ff#
4A	V	.	4.cc#	4.ee
4AA	.	.	.	.
.	.	.	8cc#	8aa
=3	=3	=3	=3	=3
2D	I	.	4dd	4ff#
.	.	.	4a	4dd
4C#	V6	6	4ee	[4aa
=4	=4	=4	=4	=4
2BB	IV6(2)	7	2dd	4aa]
.	IV6	6	.	8ggL
.	.	.	.	8ff#J
4E	ii7	7	8cc#L	[4gg
.	.	.	8bJ	.
=5	=5	=5	=5	=5
2AA	V7	7	2cc#	4gg]
.	.	6	.	4cc#
4D	I	.	4dd	[4ff#
=6	=6	=6	=6	=6
2G	ii6(2)	7	4.b	4ff#]
.	ii6	6	.	8eeL
.	.	.	8b	8ddJ
8F#L	ii	7	8aL	[4ee
8EJ	.	.	8gJ	.
=7	=7	=7	=7	=7
2F#	I6(2)	7	2a	4ee]
.	.	6	.	4a
4FF#	I6	.	[4dd	4aa
=8	=8	=8	=8	=8
4GG	ii65	6 5	4dd]	8bbL
.	.	.	.	8eeJ
2AA	V	5 4	2cc#	2ee
.	V	3	.	.
=9	=9	=9	=9	=9
2D	I|PAC}	.	2dd	2dd
[4d	{	.	4dd	4ff#
=10	=10	=10	=10	=10
4d]	viio(2)	4 2	2ee	4gg
2c#	V6	6	.	4ee
.	.	.	4ee	4aa
=11	=11	=11	=11	=11
2d	I	.	2a	4ff#
.	.	.	.	4dd
[4c#	V6	6	[4a	4ee
=12	=12	=12	=12	=12
4c#]	.	.	4a]	4a
2B	V.viio6	#6\	2g#X	4.dd
.	.	.	.	8ee
=13	=13	=13	=13	=13
2A	I	.	2a	4cc#
.	.	.	.	4a
*A:	*A:	*	*A:	*A:
4G#X	V6	6	4b	[4ee
=14	=14	=14	=14	=14
2F#	IV6(2)	7	2a	4ee]
.	.	6	.	4a
4BB	ii7	7	8bL	[4dd
.	.	.	8aJ	.
=15	=15	=15	=15	=15
2E	V7	7 #	2g#X	4dd]
.	.	6	.	4g#X
4AA	IM7	7	4a	[4cc#
=16	=16	=16	=16	=16
2D	ii6(2)	7	2f#	4cc#]
.	.	6	.	4f#
4D	ii6	.	4f#	4b
=17	=17	=17	=17	=17
2D	V2	#4| 2	2e	4g#X
.	.	.	.	4e
4C#	I6	6	[4a	4ee
=18	=18	=18	=18	=18
4D	IV	.	4a]	8ddL
.	.	.	.	8cc#J
2E	V(4)	5 4	4.a	4.b
.	V(4)	#	.	.
.	.	.	8g#X	8ee
=19	=19	=19	=19	=19
2AA	I|IAC}	.	2a	2cc#
8r	.	.	8r	8r
8A	I.V{	.	8cc#	8ee
==20	==20	==20	==20	==20
2A	I|IAC}	.	4.cc#	4.ee
.	.	.	8cc#	8ee
4F#	.	6	4dd	4aa
=21	=21	=21	=21	=21
4G	IV	.	4dd	4bb
2E	ii7	7	4.dd	4.gg
.	ii7	6	.	.
.	.	.	8cc#	8aa
=22	=22	=22	=22	=22
2D	I}	.	4dd	4ff#
.	.	.	4a	4dd
4d	{	.	4dd	[4ff#
=23	=23	=23	=23	=23
*b:	*b:	*	*b:	*b:
4G#X	vi.IV6(2)	7	4b	4ff#]
2A#X	#viio	5	2cc#	4.ee
.	.	.	.	8cc#
=24	=24	=24	=24	=24
2B	i}	.	2f#	4dd
.	.	.	.	4b
4D	i6{	6	4b	4ff#
=25	=25	=25	=25	=25
4E	iv	5	4b	8eeL
.	.	.	.	8ddJ
2F#	V(4)	5 4	4.b	2cc#
.	V(4)	#	.	.
.	.	.	8a#X	.
=26	=26	=26	=26	=26
4B	i|PAC}{	.	2.b	2.b
4F#	.	.	.	.
4B	.	.	.	.
=27	=27	=27	=27	=27
*A:	*A:	*	*A:	*A:
2.G#X	I.V6/V	6	4b	4ee
.	.	.	4ee	4b
.	.	.	4b	4ee
=28	=28	=28	=28	=28
4A	V	.	2.e	2.cc#
4E	.	.	.	.
4A	.	.	.	.
=29	=29	=29	=29	=29
*D:	*D:	*	*D:	*D:
4F#	I6	6	4dd	4aa
2C#	V6	6	4aa	4ee
.	.	.	4ee	4aa
=30	=30	=30	=30	=30
4D	I	.	2.a	2.ff#
4AA	.	.	.	.
4D	.	.	.	.
=31	=31	=31	=31	=31
4GG	ii6(2)	7	4b	4ff#
2GG#X	V6/V	6	2b	4.ee
.	.	.	.	8dd
=32	=32	=32	=32	=32
2AA	V|HC}	.	2e	4cc#
.	.	.	.	4a
4F#	I6{	6	4a	[4dd
=33	=33	=33	=33	=33
2G	IV	5	2b	4dd]
.	.	6	.	4b
4E	V/V	#	4g#X	[4ee
=34	=34	=34	=34	=34
2A	V	5	2cc#	4ee]
.	.	6	.	4cc#
4F#	iii	.	4a	[4ff#
=35	=35	=35	=35	=35
2B	vi	5	2dd	4ff#]
.	.	6	.	4dd
4E	ii	.	4b	[4gg
=36	=36	=36	=36	=36
4A	V7	7	4cc#	4gg]
4B	vi	5	[2dd	4ff#
4F#	I6	6	.	4aa
=37	=37	=37	=37	=37
4G	ii65	6 5	4dd]	8bbL
.	.	.	.	8eeJ
4A	V	.	2cc#	2ee
4AA	.	.	.	.
=38	=38	=38	=38	=38
2D	I|PAC}	.	2dd	2dd
4GG	IV{	.	4d	4b
=39	=39	=39	=39	=39
2GG	V2	4 2	2e	4c#
.	.	.	.	4A
4FF#	I6	6	[4f#	[4d
=40	=40	=40	=40	=40
4GG	IVM7	7	4f#]	4d]
2AA	V(4)	5 4	4.e	4.d
.	V(4)	3	.	.
.	.	.	8a	8c#
=41	=41	=41	=41	=41
2DD	I|PAC}	.	2f#	2d
8r	.	.	8r	8r
=:|!	=:|!	=:|!	=:|!	=:|!
*-	*-	*-	*-	*-
!!!system-decoration: [{s1,s2},s3]
!!!YEM: CC BY-NC-SA 4.0; CCARH; DCML